icons/bhi_link.svg

<svg xmlns="http://www.w3.org/2000/svg" viewBox="0 0 512 512" enable-background="new 0 0 512 512"><path fill="#010101" d="M213.9 336.5l153.6-153.6-38.4-38.4-153.6 153.6 38.4 38.4zm-97.9 59.5c-44.2-44.2-44.2-113.3 0-157.4l57.6-57.6-36.5-36.5-57.6 57.6c-63.4 63.4-63.4 167 0 230.4s167 63.4 230.4 0l57.6-57.6-36.5-36.5-57.6 57.6c-44.1 44.1-113.2 44.1-157.4 0zm117.1-347.5l-57.6 57.6 36.5 36.5 57.6-57.6c44.2-44.2 113.3-44.2 157.4 0s44.2 113.3 0 157.4l-57.6 57.6 36.5 36.5 57.6-57.6c63.4-63.4 63.4-167 0-230.4s-167-63.4-230.4 0z"/></svg>

<?xml version="1.0" encoding="utf-8"?>
<!-- Generator: Adobe Illustrator 19.2.0, SVG Export Plug-In . SVG Version: 6.00 Build 0)  -->
<svg version="1.1" id="Layer_1" xmlns="http://www.w3.org/2000/svg" xmlns:xlink="http://www.w3.org/1999/xlink" x="0px" y="0px"
	 viewBox="0 0 512 512" enable-background="new 0 0 512 512" xml:space="preserve">
<g id="link_1_">
	<path fill="#010101" d="M213.9,336.5l153.6-153.6l-38.4-38.4L175.5,298.1L213.9,336.5z M116,396c-44.2-44.2-44.2-113.3,0-157.4
		l57.6-57.6l-36.5-36.5l-57.6,57.6c-63.4,63.4-63.4,167,0,230.4s167,63.4,230.4,0l57.6-57.6L331,338.4L273.4,396
		C229.3,440.1,160.2,440.1,116,396z M233.1,48.5l-57.6,57.6l36.5,36.5L269.6,85c44.2-44.2,113.3-44.2,157.4,0s44.2,113.3,0,157.4
		L369.4,300l36.5,36.5l57.6-57.6c63.4-63.4,63.4-167,0-230.4S296.5-14.9,233.1,48.5z"/>
</g>
</svg>
